bms/v1/borehole/export/profile/svg_pattern/15102071.svg

<svg xmlns="http://www.w3.org/2000/svg" width="20mm" height="20mm" viewBox="0 0 56.6929 56.6929"><defs><style>.a{fill:none;stroke:#000;stroke-miterlimit:10;stroke-width:0.5px;}</style></defs><title>15102071</title><path class="a" d="M30.9077,17.3189,38.706,9.1523l8.05,8.1666-1.4512-.94a11.9052,11.9052,0,0,0-12.9459,0Z"/><path class="a" d="M30.9077,35.525l7.7983-8.1667,8.05,8.1667-1.4512-.94a11.9056,11.9056,0,0,0-12.9459,0Z"/><path class="a" d="M2.5613,26.9567,10.36,18.79l8.05,8.1666-1.4511-.94a11.9057,11.9057,0,0,0-12.946,0Z"/><path class="a" d="M2.5613,8.9293,10.36.7626l8.05,8.1667-1.4511-.94a11.9057,11.9057,0,0,0-12.946,0Z"/><path class="a" d="M2.5613,45.1628,10.36,36.9961l8.05,8.1667-1.4511-.94a11.9057,11.9057,0,0,0-12.946,0Z"/><path class="a" d="M30.9077,53.6667,38.706,45.5l8.05,8.1666-1.4512-.94a11.9052,11.9052,0,0,0-12.9459,0Z"/></svg>

<?xml version="1.0" encoding="utf-8"?>
<!-- Generator: Adobe Illustrator 22.0.0, SVG Export Plug-In . SVG Version: 6.00 Build 0)  -->
<svg version="1.1" id="Ebene_1" xmlns="http://www.w3.org/2000/svg" xmlns:xlink="http://www.w3.org/1999/xlink" x="0px" y="0px"
	 viewBox="0 0 56.7 56.7" style="enable-background:new 0 0 56.7 56.7;" xml:space="preserve">
<style type="text/css">
	.st0{fill:none;}
	.st1{fill:none;stroke:#000000;stroke-width:0.5;stroke-linejoin:round;stroke-miterlimit:10;}
	.st2{fill:none;stroke:url(#_x31_5102071);stroke-miterlimit:10;}
	.st3{fill:none;stroke:url(#_x31_5102071);stroke-width:0.5;stroke-linejoin:round;stroke-miterlimit:10;}
</style>
<pattern  width="56.7" height="56.7" patternUnits="userSpaceOnUse" id="_x31_5102071" viewBox="0 -56.7 56.7 56.7" style="overflow:visible;">
	<g>
		<rect y="-56.7" class="st0" width="56.7" height="56.7"/>
		<path class="st1" d="M30.9-39.4l7.8-8.2l8,8.2l-1.5-0.9c-3.9-2.6-9-2.6-12.9,0L30.9-39.4z"/>
		<path class="st1" d="M30.9-21.2l7.8-8.2l8,8.2l-1.5-0.9c-3.9-2.6-9-2.6-12.9,0L30.9-21.2z"/>
		<path class="st1" d="M31-0.5l7.8-8.2l8,8.2l-1.5-0.9c-3.9-2.6-9-2.6-12.9,0L31-0.5z"/>
		<path class="st1" d="M2.6-29.7l7.8-8.2l8.1,8.2L17-30.7c-3.9-2.6-9-2.6-12.9,0L2.6-29.7z"/>
		<path class="st1" d="M2.6-47.8l7.8-8.2l8.1,8.2L17-48.7c-3.9-2.6-9-2.6-12.9,0L2.6-47.8z"/>
		<path class="st1" d="M2.6-11.5l7.8-8.2l8.1,8.2L17-12.5C13-15,8-15,4-12.5L2.6-11.5z"/>
	</g>
</pattern>
<rect x="0" y="0" class="st2" width="56.7" height="56.7"/>
<path class="st3" d="M30.9,17.3l7.8-8.2l8,8.2l-1.5-0.9c-3.9-2.6-9-2.6-12.9,0L30.9,17.3z"/>
<path class="st3" d="M30.9,35.5l7.8-8.2l8,8.2l-1.5-0.9c-3.9-2.6-9-2.6-12.9,0L30.9,35.5z"/>
<path class="st3" d="M31,56.2l7.8-8.2l8,8.2l-1.5-0.9c-3.9-2.6-9-2.6-12.9,0L31,56.2z"/>
<path class="st3" d="M2.6,27l7.8-8.2l8.1,8.2L17,26C13,23.5,8,23.5,4,26L2.6,27z"/>
<path class="st3" d="M2.6,8.9l7.8-8.2l8.1,8.2L17,8C13,5.4,8,5.4,4,8L2.6,8.9z"/>
<path class="st3" d="M2.6,45.2l7.8-8.2l8.1,8.2L17,44.2c-3.9-2.6-9-2.6-12.9,0L2.6,45.2z"/>
</svg>
